X:1
T:Title
%%score { ( 1 4 ) | ( 2 3 ) }
L:1/8
Q:1/4=100
M:4/4
K:Eb
V:1 treble nm="Grand Piano"
V:4 treble 
V:2 bass 
V:3 bass 
V:1
 [GB]2 [GB]>[FA] G>_G [B,E=G]>[B,FA] | B2 z2 z4 | [B,EG]2 [B,EG]>[B,FA] [EGB]2 [EAc]>[CFA] | %3
w: Asa~Hull * * * * * *|||
 [EG]4 z4 | [EGB]2 [EGB]>[B,FA] E->[E_G] [B,E=G]>[B,FA] | B2 z2 [GB]2 z2 | %6
w: |||
 [EG]2 [EG]>[E=A] [DB]2 d>c | [DB]6 z2 | [Ad]2 [Ad]>[Ad] [Ad]2 [Ac][Ad] | [Ge]4 [GB]2 z2 | %10
w: ||||
 [Ad]2 [Ad]>[Ad] [Ad]2 [Ac][Ad] | [Ge]4 [GB]2 z2 | [GB]2 [GB]>[FA] G>_G [B,E=G]>[B,FA] | %13
w: |||
 B2 z2 [EGB]2 [B,G]2 | [B,G]2 [=A,_G][B,=G] [CA]GFE |[M:3/4] D6 |[M:1/4] [FB]2 | %17
w: ||||
[M:4/4] [GB]2 [_G=A][=GB] [E_Ac][GB] [B,_GA]>[A,DF] | [G,E]6 z2 |] %19
w: ||
V:2
 z4 B,2 z2 | z2[K:treble] e2 E,2 z2 | E,2 E,>E, E,2 A,,>A,, | z4 D2 z2 | %4
 E,2 E,>E, z z/ =A,/ E,>E, | z2[K:treble] e2 [E,E]2 z2 | %6
 [E,B,]2 [C,C]>[C,F,] [B,,F,]2 [F,F]>[F,E] | [B,,F,]6 z2 | %8
 [B,,B,]2 [B,,B,]>[B,,B,] [B,,B,]2 [B,,B,][B,,B,] | [E,B,]4 [E,E]2 z2 | %10
 [B,,B,]2 [B,,B,]>[B,,B,] [B,,B,]2 [B,,B,][B,,B,] | [E,B,]4 [E,E]2 z2 | z4 B,2 z2 | %13
 z2[K:treble] e2[K:bass] E,2 D,2 | E,2 E,E, z B,[B,,A,][B,,G,] |[M:3/4] [B,,F,]6 |[M:1/4] [D,B,]2 | %17
[M:4/4] [E,E]2 [E,E][E,E] z B, B,,>B,, | E,6 z2 |] %19
V:3
 [E,E]2 [E,E]>[E,B,] [E,E]->[E,=A,E] E,>E, | E,4[K:treble] z4 | x8 | B,,6 z2 | z4 E,2 z2 | %5
 E,4[K:treble] z4 | x8 | x8 | x8 | x8 | x8 | x8 | [E,E]2 [E,E]>[E,B,] [E,E]->[E,=A,E] E,>E, | %13
 E,4[K:treble][K:bass] z4 | z4 E,2 z2 |[M:3/4] x6 |[M:1/4] x2 |[M:4/4] z4 E,2 z2 | x8 |] %19
V:4
 x8 | [B,G]4 [EGB]2 z2 | x8 | B,4- [B,F]2 z2 | z4 [B,G]2 z2 | [B,G]4 z4 | x8 | x8 | x8 | x8 | x8 | %11
 x8 | x8 | [B,G]4 z4 | x8 |[M:3/4] x6 |[M:1/4] x2 |[M:4/4] x8 | x8 |] %19

